!!!OTL: Mary Had a Little Lamb
!!!COM: unknown
!!!LYR: Hale, Sarah
!!!ODT: unknown
!!!YOR: The Folksong Fake Book
!!!YOY: 2000
!!!AST: Children's song
!!!YEC: Brian Luke, 2001
**kern	**harm
*k[f#c#]	*k[f#c#]
*M4/4	*M4/4
*D:	*D:
*>A	*>A
=1	=1
4.f#	I
8e	.
4d	.
4e	.
=2	=2
4f#	.
4f#	.
2f#	.
=3	=3
4e	V7
4e	.
2e	.
=4	=4
4f#	I;
4a	.
2a	.
*>A'	*>A'
=5	=5
4.f#	I
8e	.
4d	.
4e	.
=6	=6
4f#	.
4f#	.
4f#	.
4f#	.
=7	=7
4e	V7
4e	.
4f#	.
4e	.
=8	=8
2d	I;
2r	.
*-	*-
